X: 20381
T: I'M AS SMART A LAD AS YOU'D WISH TO SEE.
T: FROM "THE MOUTH OF THE NILE."
C: Attwood.
Q: "Briskly."
%R: air, march
B: W. Hamilton "Universal Tune-Book" Vol. 2 Glasgow 1846 p.38 #1
S: http://s3-eu-west-1.amazonaws.com/itma.dl.printmaterial/book_pdfs/hamiltonvol2web.pdf
Z: 2016 John Chambers <jc:trillian.mit.edu>
M: 2/4
L: 1/16
K: D
%%stretchstaff 0
% - - - - - - - - - - - - - - - - - - - - - - - - -
AA |\
d2d2 d2ef | B2B2B2d2 |\
A2dd e2de | f2d2 d2AA |\
d2dd d2ef | B2BB B2dd |\
Addd e2(de) | f2d2d2 |]| f2 |\
e2(ed) c2(cB) | A2B2c2A2 |\
e2ed c2c2 | (BA)(Bc) A2AA |
e2ed c2cB | A2B2c2A2 |\
e2ed c2BA | B2e2A2z2 |\
B2e2A2z2 | B2e2 A2AA |\
dddd d2ef | B2B2 B2cd |\
AAdd e2de | f2d2 d2AA |\
d2dd d2ef | B2HB2B2d2 |\
A2dd e2(de) | f2d2d2 |]
% - - - - - - - - - - - - - - - - - - - - - - - - -

%%sep 1 1 500
%%sep 1 1 500

